assets/img/social/github.svg

<svg width="32" height="32" viewBox="0 0 32 32" fill="none" xmlns="http://www.w3.org/2000/svg">
<g clip-path="url(#clip0)">
<path d="M16 0.666748C7.16 0.666748 0 7.70675 0 16.3894C0 23.3374 4.584 29.2294 10.94 31.3068C11.74 31.4548 12.0333 30.9681 12.0333 30.5508C12.0333 30.1774 12.02 29.1881 12.0133 27.8774C7.56267 28.8254 6.624 25.7681 6.624 25.7681C5.896 23.9534 4.844 23.4681 4.844 23.4681C3.39467 22.4934 4.956 22.5134 4.956 22.5134C6.56267 22.6228 7.40667 24.1334 7.40667 24.1334C8.83333 26.5374 11.152 25.8428 12.0667 25.4414C12.2107 24.4241 12.6227 23.7321 13.08 23.3388C9.52667 22.9454 5.792 21.5934 5.792 15.5694C5.792 13.8534 6.412 12.4507 7.43867 11.3507C7.25867 10.9534 6.71867 9.35475 7.57867 7.18942C7.57867 7.18942 8.91867 6.76808 11.9787 8.80142C13.2587 8.45208 14.6187 8.27875 15.9787 8.27075C17.3387 8.27875 18.6987 8.45208 19.9787 8.80142C23.0187 6.76808 24.3587 7.18942 24.3587 7.18942C25.2187 9.35475 24.6787 10.9534 24.5187 11.3507C25.5387 12.4507 26.1587 13.8534 26.1587 15.5694C26.1587 21.6094 22.4187 22.9388 18.8587 23.3254C19.4187 23.7974 19.9387 24.7614 19.9387 26.2348C19.9387 28.3388 19.9187 30.0294 19.9187 30.5401C19.9187 30.9521 20.1987 31.4441 21.0187 31.2868C27.42 29.2228 32 23.3268 32 16.3894C32 7.70675 24.836 0.666748 16 0.666748V0.666748Z" fill="black"/>
</g>
<defs>
<clipPath id="clip0">
<rect width="32" height="32" fill="white"/>
</clipPath>
</defs>
</svg>

<svg width="32" height="32" fill="none" xmlns="http://www.w3.org/2000/svg"><g clip-path="url(#prefix__clip0)"><path d="M16 .667c-8.84 0-16 7.04-16 15.722 0 6.948 4.584 12.84 10.94 14.918.8.148 1.093-.339 1.093-.756 0-.374-.013-1.363-.02-2.674-4.45.948-5.389-2.109-5.389-2.109-.728-1.815-1.78-2.3-1.78-2.3-1.45-.975.112-.955.112-.955 1.607.11 2.45 1.62 2.45 1.62 1.427 2.404 3.746 1.71 4.66 1.308.145-1.017.557-1.709 1.014-2.102-3.553-.394-7.288-1.746-7.288-7.77 0-1.716.62-3.118 1.647-4.218-.18-.398-.72-1.996.14-4.162 0 0 1.34-.42 4.4 1.612a15.62 15.62 0 014-.53c1.36.008 2.72.181 4 .53 3.04-2.033 4.38-1.612 4.38-1.612.86 2.166.32 3.764.16 4.162 1.02 1.1 1.64 2.502 1.64 4.218 0 6.04-3.74 7.37-7.3 7.756.56.472 1.08 1.436 1.08 2.91 0 2.104-.02 3.794-.02 4.305 0 .412.28.904 1.1.747C27.42 29.223 32 23.327 32 16.389 32 7.707 24.836.667 16 .667z" fill="#000"/></g><defs><clipPath id="prefix__clip0"><path fill="#fff" d="M0 0h32v32H0z"/></clipPath></defs></svg>
